X:1
T:Title
%%score { 1 | 2 }
L:1/8
M:3/4
K:C
V:1 treble nm="Grand Piano"
V:2 bass 
V:1
 z2 z2[Q:1/4=82] G>G | [Ec]3 [Ec] [_EB][EA] | [EG]4 C>D |[M:2/4] E2 E2 |[M:1/4] C>D | %5
[M:3/4] E2 E2 ED | G3 G FE | [G,B,D]4 G>G | [Ge]3 [^F_e] [=Fd]B | c2 E2 BA | %10
 G2 [CEc]2[K:bass] [G,CE][F,B,D] |[M:2/4] [E,C]4 |] %12
V:2
 z2 z2 G,>G, | [C,G,]3 [C,G,] [C,^F,][C,F,] | [C,C]4 [F,A,]>[F,A,] |[M:2/4] [E,^G,B,]2 [E,G,B,]2 | %4
[M:1/4] [F,A,]>[F,A,] |[M:3/4] [E,^G,B,]2 [E,G,B,]2 [F,=G,B,][F,G,B,] | %6
 [E,G,C]3 [E,G,C] [D,G,B,][C,G,C] | G,,4 G,>G, | [C,G,]3 [C,A,] [D,B,][K:treble][G,DF] | %9
 [A,CE]2[K:bass] [A,C]2 [^F,C_E][F,CE] | [G,CE]2 G,,2 G,,G,, |[M:2/4] C,4 |] %12

